X:1
T:Title
%%score { ( 1 3 ) | ( 2 4 ) }
L:1/8
Q:1/4=110
M:4/4
K:Ab
V:1 treble nm="Grand Piano"
V:3 treble 
V:2 treble 
V:4 treble 
V:1
 A2 A>B c2 B2 | [DAd]4 [EAc]4 | [B,FB]2 [B,DF]>[B,EG] [A,EA]2 [DFB]2 | [CA]4 G2 z2 | A2 A>B c2 B2 | %5
w: W.~H.~Doane * * * *|||||
 [Ad]4 [Ac]4 | [FB]2 .[B,FA]2 [CEA]2 [DEG]2 | [CEA]6 z2 | B2 B>c d2 B2 | [Ec]4 [=Ec]4 | %10
w: |||||
 [A,FA]2 [CFA]>[CFA] [=DFB]2 [B,DF]2 | E2- [E-A]2 [EB]4 | A2 A>B c2 B2 | [Ad]4 [Ac]4 | %14
w: ||||
 [FB]2 .[B,FA]2 [CEA]2 [DEG]2 | [CEA]6 z2 | [CE][CE] [CE]>[CE] [DF]4 | [=DF][DF] [DF]>[DF] G4 | %18
w: ||||
 BB [EB]>[EB] [Ee]2 [FA][=EB] |[M:5/4] [Ec]3 [DB]3 [CA]4 |] %20
w: ||
V:2
 [A,CE]2 [A,CE]>[A,CE] [A,EA]2 [G,E]2 | F,4 E,4 | =D,2 _D,>D, C,2 D,2 | z4 B,2 z2 | %4
 [A,CE]2 [A,CE]>[A,DE] [A,EA]2 [A,E]2 | [F,D]4 [E,E]4 | [D,A,]2 z _C E,2 E,2 | A,,6 z2 | %8
 [E,G,E]2 [E,G,E]>[E,A,E] [E,B,E]2 [E,G,E]2 | [A,,A,]4 [C,G,]4 | F,2 F,>F, B,,2 B,,2 | %11
 z2[K:treble] C2 D4 | [A,CE]2 [A,CE]>[A,DE][K:bass] [A,E]2 [G,E]2 | [F,D]4 [E,E]4 | %14
 [D,A,]2 z _C E,2 E,2 | A,,6 z2 | [A,,A,][A,,A,] [A,,A,]>[A,,A,] [D,A,]4 | %17
 [B,,B,][B,,B,] [B,,B,]>[B,,B,] [E,B,E]4 | [E,G,E][E,G,E] [D,G,]>[D,G,] [C,A,]2 [D,A,][D,A,] | %19
[M:5/4] [E,A,]3 [E,G,]3 [A,,A,]4 |] %20
V:3
 x8 | x8 | x8 | E6 z2 | x8 | x8 | x8 | x8 | x8 | x8 | x8 | [B,G]2 z2 z4 | x8 | x8 | x8 | x8 | x8 | %17
 x8 | x8 |[M:5/4] x10 |] %20
V:4
 x8 | x8 | x8 | E,6 z2 | x8 | x8 | z2 =D,2 z4 | x8 | x8 | x8 | x8 | E,8[K:treble] | x4[K:bass] x4 | %13
 x8 | z2 =D,2 z4 | x8 | x8 | x8 | x8 |[M:5/4] x10 |] %20

